X:1
T:Title
%%score { ( 1 3 ) | ( 2 4 ) }
L:1/8
Q:1/4=100
M:4/4
K:Bb
V:1 treble nm="Grand Piano"
V:3 treble 
V:2 bass 
V:4 bass 
V:1
 [DB]2 [EA][EG] [DF]2 [DG]2 | [CE]2 [CF]2 [B,D]4 | [CD]2 [C=E][C^F] [DG]2 AB | [Fc]2 [=Ec]2 [Fc]4 | %4
w: A.~B.~Ponsonby * * * *||||
 [Fc]2 [B,FB][CFA] [B,FB]3 [B,F] | z2 F2 c2 z2 | [B,GB]2 [Ge][Ge] [^Fd]2 [B,GB]2 | %7
w: |||
 [EGB]2 [EAc]2 [DFB]4 |] %8
w: |
V:2
 [B,,F,]2 [B,,G,][B,,A,] [B,,B,]2 [=B,,G,]2 | [C,G,]2 [A,,F,]2 [B,,F,]4 | %2
 [A,,^F,]2 [A,,=E,][A,,D,] [B,,G,]2 [A,,F,][G,,G,] | [C,A,]2 [C,B,]2 [F,A,]4 | %4
 [E,A,]2 E,E, D,3 D, | [E,A,]2 .[E,A,]2 z2[K:treble] B2 | E,2 [C,C][C,B,] [D,A,]2 G,2 | %7
 C,2 F,2 B,,4 |] %8
V:3
 x8 | x8 | z4 z2 D2 | x8 | x8 | [Fc]2 d[CA] F4 | x8 | x8 |] %8
V:4
 x8 | x8 | x8 | x8 | x8 | z4 [D,B,]4[K:treble] | x8 | x8 |] %8

